src/lib/packages/icons/src/assets/line/paypal.svg

<svg width="24" height="24" viewBox="0 0 24 24" fill="none" xmlns="http://www.w3.org/2000/svg">
<path d="M18.69 6.80975C18.62 6.75975 18.55 6.72976 18.48 6.68976C18.45 6.32976 18.39 5.96976 18.28 5.59976C18.2 5.36976 18.09 5.12976 17.97 4.90976C17.1 3.27976 15.3 2.25977 13.27 2.25977H7.70999C7.07999 2.25977 6.55001 2.70974 6.45001 3.32974L4.26999 16.7997C4.25999 16.8697 4.25 16.9397 4.25 16.9897C4.25 17.6397 4.77999 18.1598 5.42999 18.1598H7.78L7.41 20.4198C7.37 20.7298 7.45001 21.0497 7.64001 21.2997C7.83001 21.5497 8.1 21.7097 8.41 21.7397C8.47 21.7397 8.52999 21.7598 8.57999 21.7598H11.36C11.98 21.7598 12.52 21.2998 12.62 20.6898L13.32 16.3597H14.78C17.74 16.3597 20.22 14.2798 20.68 11.4198C20.97 9.61977 20.2 7.84976 18.68 6.81976L18.69 6.80975ZM7.89999 3.74976H13.27C14.77 3.74976 16.03 4.43976 16.65 5.59976C16.73 5.75976 16.81 5.91976 16.86 6.06976C16.97 6.41976 17.02 6.76975 17.01 7.11975V7.13977C17.01 7.27977 16.99 7.42974 16.97 7.57974C16.95 7.67974 16.92 7.76975 16.9 7.86975C16.45 9.80975 14.66 11.2398 12.59 11.2498C12.58 11.2498 12.57 11.2498 12.56 11.2498H10.01C9.83001 11.2498 9.67001 11.2897 9.51001 11.3597C9.11001 11.5297 8.80999 11.8798 8.73999 12.3198L8.03 16.6497H5.82001L7.91 3.74976H7.89999ZM19.21 11.1698C18.87 13.2998 17.01 14.8498 14.79 14.8498H13.16C12.52 14.8498 11.99 15.2998 11.89 15.9198L11.19 20.2498H8.97L10.19 12.7498H12.56C12.92 12.7498 13.27 12.7198 13.61 12.6598C13.72 12.6398 13.83 12.5997 13.93 12.5797C14.16 12.5297 14.38 12.4797 14.6 12.3997C14.72 12.3597 14.84 12.2998 14.96 12.2498C15.15 12.1698 15.34 12.0897 15.51 11.9897C15.63 11.9197 15.74 11.8397 15.86 11.7697C16.02 11.6597 16.18 11.5598 16.34 11.4398C16.45 11.3498 16.55 11.2598 16.65 11.1598C16.79 11.0298 16.93 10.8998 17.05 10.7598C17.14 10.6498 17.23 10.5397 17.32 10.4297C17.44 10.2797 17.54 10.1297 17.65 9.95975C17.72 9.83975 17.79 9.71975 17.86 9.58975C17.95 9.41975 18.03 9.23975 18.1 9.05975C18.15 8.92975 18.2 8.79976 18.25 8.65976C18.27 8.57976 18.31 8.50975 18.33 8.42975C19.06 9.14975 19.39 10.1298 19.22 11.1598L19.21 11.1698Z" fill="currentColor"/>
</svg>

<svg xmlns="http://www.w3.org/2000/svg" width="24" height="24" fill="none"><path fill="currentColor" d="M18.69 6.81c-.07-.05-.14-.08-.21-.12-.03-.36-.09-.72-.2-1.09-.08-.23-.19-.47-.31-.69-.87-1.63-2.67-2.65-4.7-2.65H7.71c-.63 0-1.16.45-1.26 1.07L4.27 16.8c-.01.07-.02.14-.02.19 0 .65.53 1.17 1.18 1.17h2.35l-.37 2.26c-.04.31.04.63.23.88s.46.41.77.44c.06 0 .12.02.17.02h2.78c.62 0 1.16-.46 1.26-1.07l.7-4.33h1.46c2.96 0 5.44-2.08 5.9-4.94.29-1.8-.48-3.57-2-4.6l.01-.01ZM7.9 3.75h5.37c1.5 0 2.76.69 3.38 1.85.08.16.16.32.21.47.11.35.16.7.15 1.05v.02c0 .14-.02.29-.04.44-.02.1-.05.19-.07.29-.45 1.94-2.24 3.37-4.31 3.38h-2.58c-.18 0-.34.04-.5.11-.4.17-.7.52-.77.96l-.71 4.33H5.82l2.09-12.9H7.9Zm11.31 7.42c-.34 2.13-2.2 3.68-4.42 3.68h-1.63c-.64 0-1.17.45-1.27 1.07l-.7 4.33H8.97l1.22-7.5h2.37c.36 0 .71-.03 1.05-.09.11-.02.22-.06.32-.08.23-.05.45-.1.67-.18.12-.04.24-.1.36-.15.19-.08.38-.16.55-.26.12-.07.23-.15.35-.22.16-.11.32-.21.48-.33.11-.09.21-.18.31-.28.14-.13.28-.26.4-.4l.27-.33c.12-.15.22-.3.33-.47.07-.12.14-.24.21-.37.09-.17.17-.35.24-.53.05-.13.1-.26.15-.4.02-.08.06-.15.08-.23.73.72 1.06 1.7.89 2.73l-.01.01Z"/></svg>
